icons/clipboard-arrow-down-outline.svg

<svg xmlns="http://www.w3.org/2000/svg" width="24" height="24" viewBox="0 0 24 24">
  <path d="M16,1 C16.5128358,1 16.9355072,1.38604019 16.9932723,1.88337887 L17,2 L17,3 L18,3 C19.5976809,3 20.9036609,4.24891996 20.9949073,5.82372721 L21,6 L21,20 C21,21.5976809 19.75108,22.9036609 18.1762728,22.9949073 L18,23 L6,23 C4.40231912,23 3.09633912,21.75108 3.00509269,20.1762728 L3,20 L3,6 C3,4.40231912 4.24891996,3.09633912 5.82372721,3.00509269 L6,3 L7,3 L7,2 C7,1.48716416 7.38604019,1.06449284 7.88337887,1.00672773 L8,1 L16,1 Z M7,5 L6,5 C5.48716416,5 5.06449284,5.38604019 5.00672773,5.88337887 L5,6 L5,20 C5,20.5128358 5.38604019,20.9355072 5.88337887,20.9932723 L6,21 L18,21 C18.5128358,21 18.9355072,20.6139598 18.9932723,20.1166211 L19,20 L19,6 C19,5.44771525 18.5522847,5 18,5 L17,5 L17,6 C17,6.51283584 16.6139598,6.93550716 16.1166211,6.99327227 L16,7 L8,7 C7.48716416,7 7.06449284,6.61395981 7.00672773,6.11662113 L7,6 L7,5 Z M12,10 C12.5522847,10 13,10.4477153 13,11 L13,11 L13,14.585 L14.2928932,13.2928932 L14.3871006,13.2097046 C14.7793918,12.9046797 15.3466228,12.9324093 15.7071068,13.2928932 C16.0976311,13.6834175 16.0976311,14.3165825 15.7071068,14.7071068 L15.7071068,14.7071068 L12.7071068,17.7071068 L12.625449,17.7803112 C12.6225624,17.7826279 12.6196628,17.7849289 12.6128994,17.7902954 C12.6070733,17.7948255 12.6012086,17.7992821 12.5951593,17.8036865 C12.5711307,17.8215099 12.546275,17.8382813 12.5207088,17.8540045 C12.5086131,17.8613931 12.4963944,17.8685012 12.484277,17.8751242 C12.4642939,17.8862061 12.4438914,17.8966234 12.4232215,17.9063266 L12.4232215,17.9063266 L12.3710585,17.928896 C12.3515792,17.9366843 12.3317977,17.9438775 12.3121425,17.9502619 C12.2968513,17.9552713 12.2814633,17.9599023 12.2658396,17.964279 C12.2444365,17.9701664 12.2227461,17.9753602 12.2007258,17.9797599 C12.1833753,17.9832978 12.165949,17.9863719 12.1489612,17.9889807 L12.1489612,17.9889807 L12.08,17.996 L12.026,17.999 L12.019,17.999 L12,18 C11.9935938,18 11.9872016,17.9999398 11.980824,17.9998198 L11.980824,17.9998198 L11.9409686,17.9982669 C11.9308872,17.9976744 11.9208131,17.99693 11.909968,17.996002 L11.909968,17.996002 L11.8515331,17.9889822 C11.834051,17.9863719 11.8166247,17.9832978 11.7992059,17.9798348 C11.7772539,17.9753602 11.7555635,17.9701664 11.734007,17.9641549 C11.7185367,17.9599023 11.7031487,17.9552713 11.6882636,17.9504533 C11.6682023,17.9438775 11.6484208,17.9366843 11.628664,17.9287745 L11.628664,17.9287745 L11.5769009,17.9063462 C11.5561086,17.8966234 11.5357061,17.8862061 11.5159379,17.8753288 L11.5159379,17.8753288 L11.4793398,17.8539326 C11.453725,17.8382813 11.4288693,17.8215099 11.4046934,17.8036654 L11.4046934,17.8036654 L11.38,17.784 L11.3832499,17.787214 L11.378,17.783 L11.374551,17.7803112 L11.359,17.767 L11.347434,17.757792 L11.347434,17.757792 L11.2928932,17.7071068 L8.29289322,14.7071068 L8.20970461,14.6128994 C7.90467972,14.2206082 7.93240926,13.6533772 8.29289322,13.2928932 C8.68341751,12.9023689 9.31658249,12.9023689 9.70710678,13.2928932 L9.70710678,13.2928932 L11,14.585 L11,11 L11.0067277,10.8833789 C11.0644928,10.3860402 11.4871642,10 12,10 Z M15,3 L9,3 L9,5 L15,5 L15,3 Z"/>
</svg>

<svg xmlns="http://www.w3.org/2000/svg" viewBox="0 0 24 24">
  <path d="M16 1a1 1 0 0 1 1 .88V3h1a3 3 0 0 1 3 2.82V20a3 3 0 0 1-2.82 3H6a3 3 0 0 1-3-2.82V6a3 3 0 0 1 2.82-3H7V2a1 1 0 0 1 .88-1H16zM7 5H6a1 1 0 0 0-1 .88V20a1 1 0 0 0 .88 1H18a1 1 0 0 0 1-.88V6a1 1 0 0 0-1-1h-1v1a1 1 0 0 1-.88 1H8a1 1 0 0 1-1-.88V5zm5 5a1 1 0 0 1 1 1v3.59l1.3-1.3.09-.08a1 1 0 0 1 1.32 1.5l-3 3-.08.07a3 3 0 0 1-.15.1l-.06.03-.05.02a.95.95 0 0 1-.22.06h-.13L12 18h-.09l-.06-.01a1.1 1.1 0 0 1-.22-.06l-.05-.02a1.04 1.04 0 0 1-.06-.03l-.04-.03a1.03 1.03 0 0 1-.08-.05l-.02-.02-.02-.01-.01-.01-.06-.05-3-3-.08-.1a1 1 0 0 1 1.5-1.32L11 14.6v-3.71a1 1 0 0 1 1-.88zm3-7H9v2h6V3z"/>
</svg>
